X:1
T:Title
%%score { ( 1 3 ) | ( 2 4 ) }
L:1/8
Q:1/4=100
M:4/4
K:Bb
V:1 treble nm="Grand Piano"
V:3 treble 
V:2 bass 
V:4 bass 
V:1
 [DF]>[DF] [DF]>[DF] [DF]>[DF] [B,D]>[DF] | [DB]>[DB] [DB]>[DB] [DB]4 | %2
w: Elisha~A.~Hoffman * * * * * * *||
 [DF]>[DF] [DF]>[DF] [DF]>[DF] [B,D]>[DF] | c>c c>d c4 | [Fd]>[Fd] [Fd]>[Ec] [DB]>[DB] [DB]>[DB] | %5
w: |||
 B>B c>d [Ge]4 | [Fd]>[Ff] [Ff]>[Ff] [Gf]>[Ge] d>c |[M:3/4] B>B B>A [DB]2 |[M:1/4] D>E | %9
w: ||||
[M:4/4] F6 z2 | [Fd]4 [B,DB]2 e>d | c6 z2 | B4 z4 | F6 z2 | d4 B2 d>e | f6 z2 |[M:3/4] [DB]6 |] %17
w: ||||||||
V:2
 [B,,B,]>[B,,B,] [B,,B,]>[B,,B,] [B,,B,]>[B,,B,] [B,,F,]>[B,,B,] | %1
 [B,,F,]>[B,,F,] [B,,F,]>[B,,F,] [B,,F,]4 | %2
 [B,,B,]>[B,,B,] [B,,B,]>[B,,B,] [B,,B,]>[B,,B,] [B,,F,]>[B,,B,] | %3
 [F,A,F]>[F,A,F] [F,A,F]>[F,B,F] [F,A,F]4 | %4
 [B,,B,]>[B,,B,] [B,,B,]>[B,,F,] [B,,F,]>[B,,F,] [B,,F,]>[B,,F,] | %5
 [G,D]>[G,D] [F,A,F]>[B,F][K:bass] [E,B,]4 | %6
 [B,,B,]>[D,B,] [D,B,]>[D,B,] [E,B,]>[E,B,] [F,B,F]>[F,A,E] | %7
[M:3/4] [F,B,D]>[F,D] [F,D]>[F,C] [B,,F,]2 |[M:1/4] B,>C |[M:4/4] D6 z2 | B,4 B,,2[K:treble] G>F | %11
 F6[K:bass] z2 | z4[K:treble] F2 B,>C | D6[K:bass] z2[K:treble] | [B,F]4 [B,D]2 [B,F]>[B,CF] | %15
 F4[K:bass] z4 |[M:3/4] [B,,B,]6 |] %17
V:3
 x8 | x8 | x8 | x8 | x8 | x8 | x8 |[M:3/4] x6 |[M:1/4] x2 |[M:4/4] z2 B,>B, B,>[B,DF] [B,FB]>[Fc] | %10
 x8 | z2 A,>A, A,>B c>d | [B,D]6 D>E | z2 B,>B, B,>[B,DF] [B,FB]>c | x8 | z2 B,2 G>[Ge] [Fd]>[Ec] | %16
[M:3/4] x6 |] %17
V:4
 x8 | x8 | x8 | x8 | x8 | x4[K:bass] x4 | x8 |[M:3/4] x6 |[M:1/4] x2 | %9
[M:4/4] z2 B,,>B,, B,,>B,, D,>[F,A,] | x6[K:treble] x2 | %11
 z2[K:bass] F,>F, F,>[F,G,F] [F,A,F]>[F,B,F] | B,,6[K:treble] z2 | %13
 z2[K:bass] B,,>B,, B,,>B,, D,>[K:treble][F,A,F] | x8 | %15
 [B,D]2[K:bass] D,2 [E,B,]>[E,B,] [F,B,]>[F,A,] |[M:3/4] x6 |] %17

